src/packages/tokens/img/trx.svg

<svg width="24" height="24" viewBox="0 0 24 24" fill="none" xmlns="http://www.w3.org/2000/svg">
<g clip-path="url(#clip0_8_2966)">
<circle cx="12" cy="12" r="12" fill="#FF060A"/>
<path d="M20.7898 9.26111C20.0023 8.53399 18.913 7.42363 18.0257 6.63614L17.9732 6.59939C17.8859 6.52925 17.7874 6.47424 17.6819 6.43664C15.5425 6.03765 5.58603 4.17655 5.39178 4.20017C5.33736 4.2078 5.28533 4.22753 5.23954 4.25792L5.18966 4.2973C5.12825 4.35967 5.08161 4.43501 5.05316 4.51779L5.04004 4.55192V4.73829V4.76717C6.1609 7.88825 10.5866 18.1125 11.4581 20.5117C11.5106 20.6745 11.6103 20.9842 11.7967 21H11.8387C11.9384 21 12.3637 20.4382 12.3637 20.4382C12.3637 20.4382 19.9656 11.2193 20.7347 10.2376C20.8343 10.1167 20.9222 9.98659 20.9972 9.8491C21.0164 9.74153 21.0073 9.63083 20.971 9.52778C20.9346 9.42474 20.8722 9.33286 20.7898 9.26111ZM14.314 10.3347L17.5585 7.64413L19.4616 9.3976L14.314 10.3347ZM13.0541 10.1588L7.46813 5.58091L16.5059 7.24776L13.0541 10.1588ZM13.5581 11.3585L19.2752 10.4371L12.7391 18.312L13.5581 11.3585ZM6.70952 6.03765L12.5868 11.0251L11.7363 18.3172L6.70952 6.03765Z" fill="white"/>
</g>
<defs>
<clipPath id="clip0_8_2966">
<rect width="24" height="24" fill="white"/>
</clipPath>
</defs>
</svg>

<svg xmlns="http://www.w3.org/2000/svg" width="24" height="24" fill="none" xmlns:v="https://vecta.io/nano"><g clip-path="url(#A)"><circle cx="12" cy="12" r="12" fill="#ff060a"/><path d="M20.79 9.261l-2.764-2.625-.053-.037a1 1 0 0 0-.291-.163L5.392 4.2c-.054.008-.106.027-.152.058l-.05.039c-.061.062-.108.138-.136.22l-.013.034v.186.029c1.121 3.121 5.547 13.345 6.418 15.745.053.163.152.473.339.488h.042c.1 0 .525-.562.525-.562l8.371-10.201c.1-.121.188-.251.262-.389.019-.108.01-.218-.026-.321s-.099-.195-.181-.267zm-6.476 1.074l3.244-2.691 1.903 1.753-5.148.937zm-1.26-.176L7.468 5.581l9.038 1.667-3.452 2.911zm.504 1.2l5.717-.921-6.536 7.875.819-6.954zM6.71 6.038l5.877 4.987-.851 7.292L6.71 6.038z" fill="#fff"/></g><defs><clipPath id="A"><path fill="#fff" d="M0 0h24v24H0z"/></clipPath></defs></svg>
